fs/multiplier_1_2x_20_regular.svg

<svg viewBox="0 0 20 20" fill="none" xmlns="http://www.w3.org/2000/svg" height="1em" width="1em">
  <path d="M4.65964 6.02618C4.86307 6.09468 5.00008 6.28537 5.00008 6.50001V13.5C5.00008 13.776 4.77641 13.9998 4.50039 14C4.22412 14.0002 4.00008 13.7763 4.00008 13.5V7.95668C3.69803 8.26855 3.30164 8.60207 2.75732 8.92864C2.52053 9.07071 2.2134 8.99393 2.07133 8.75715C1.92926 8.52037 2.00604 8.21326 2.24283 8.07119C3.17964 7.50913 3.55222 6.97581 3.88196 6.5038C3.95548 6.39856 4.02688 6.29636 4.10192 6.19758C4.23176 6.02666 4.45622 5.95768 4.65964 6.02618ZM8.99263 8.08622L8.99325 8.08258L8.99314 8.08368C8.99407 8.07918 8.99605 8.06995 8.99937 8.05667C9.00603 8.03 9.01785 7.9878 9.03679 7.93532C9.0751 7.82916 9.1398 7.68855 9.24374 7.54993C9.43831 7.29044 9.79479 7.00001 10.4998 7.00001C11.138 7.00001 11.5394 7.20881 11.7665 7.49696C11.9984 7.79125 12.1201 8.25907 12.0073 8.91526C11.9411 9.30075 11.7479 9.53052 11.4441 9.72567C11.1964 9.88481 10.9178 9.99798 10.5853 10.133C10.4524 10.187 10.3109 10.2445 10.1594 10.3097C9.66672 10.522 9.11152 10.805 8.68804 11.3111C8.25308 11.8311 8.00013 12.5322 8.00013 13.4997C8.00013 13.6323 8.0528 13.7595 8.14657 13.8533C8.24034 13.947 8.36752 13.9997 8.50013 13.9997H12.5001C12.7763 13.9997 13.0001 13.7758 13.0001 13.4997C13.0001 13.2236 12.7763 12.9997 12.5001 12.9997H9.03127C9.0969 12.5101 9.25956 12.1864 9.45506 11.9528C9.72205 11.6336 10.0954 11.4261 10.5551 11.2281C10.6573 11.184 10.7682 11.1391 10.8838 11.0922C11.245 10.9457 11.6521 10.7806 11.9846 10.567C12.4666 10.2574 12.8686 9.8078 12.9929 9.08458C13.1379 8.24084 13.0096 7.45873 12.5519 6.87805C12.0895 6.29124 11.3619 6.00006 10.4998 6.00006C9.45476 6.00006 8.81141 6.4596 8.44365 6.95008C8.26643 7.18643 8.15935 7.42082 8.09616 7.59589C8.06436 7.68403 8.043 7.75901 8.02917 7.81436C8.02224 7.8421 8.01716 7.8651 8.01357 7.88257L8.00926 7.9046L8.00786 7.91237L8.00733 7.91541L8.00711 7.91672L8.00691 7.91789C7.9778 8.0926 7.98606 8.04303 7.99576 7.98481L8.00674 7.91892C7.96204 8.19092 8.14599 8.44789 8.41804 8.49316C8.68904 8.53826 8.94537 8.3563 8.99263 8.08622ZM14.8536 10.1463C14.6583 9.95106 14.3417 9.95106 14.1464 10.1463C13.9512 10.3416 13.9512 10.6581 14.1464 10.8534L15.2929 11.9998L14.1464 13.1462C13.9512 13.3414 13.9512 13.658 14.1464 13.8533C14.3417 14.0485 14.6583 14.0485 14.8536 13.8533L16 12.7069L17.1464 13.8533C17.3417 14.0485 17.6583 14.0485 17.8536 13.8533C18.0488 13.658 18.0488 13.3414 17.8536 13.1462L16.7071 11.9998L17.8536 10.8534C18.0488 10.6581 18.0488 10.3416 17.8536 10.1463C17.6583 9.95106 17.3417 9.95106 17.1464 10.1463L16 11.2927L14.8536 10.1463ZM7 13.4997C7 13.7758 6.77614 13.9997 6.5 13.9997C6.22386 13.9997 6 13.7758 6 13.4997C6 13.2236 6.22386 12.9997 6.5 12.9997C6.77614 12.9997 7 13.2236 7 13.4997Z" fill="#212121"/>
</svg>

<svg viewBox="0 0 20 20" fill="none" xmlns="http://www.w3.org/2000/svg" height="1em" width="1em">
  <path d="M4.66 6.026A.5.5 0 0 1 5 6.5v7a.5.5 0 0 1-1 0V7.957a5.999 5.999 0 0 1-1.243.972.5.5 0 0 1-.514-.858c.937-.562 1.31-1.095 1.639-1.567a9.47 9.47 0 0 1 .22-.306.5.5 0 0 1 .558-.172Zm4.333 2.06v-.003L9 8.058a1.494 1.494 0 0 1 .244-.507C9.439 7.29 9.796 7 10.5 7c.638 0 1.04.209 1.267.497.231.294.353.762.24 1.418-.066.386-.26.616-.563.81-.248.16-.526.273-.859.408-.133.054-.274.112-.426.177-.492.212-1.047.495-1.471 1.001C8.253 11.831 8 12.532 8 13.5a.5.5 0 0 0 .5.5h4a.5.5 0 1 0 0-1H9.031c.066-.49.229-.814.424-1.047.267-.32.64-.527 1.1-.725.102-.044.213-.089.329-.136.361-.146.768-.311 1.1-.525.483-.31.885-.76 1.009-1.482.145-.844.017-1.626-.441-2.207C12.089 6.291 11.362 6 10.5 6c-1.045 0-1.689.46-2.056.95a2.495 2.495 0 0 0-.43.933l-.005.022-.001.007v.005h-.001c-.03.176-.02.126-.011.068l.01-.066a.5.5 0 0 0 .987.167Zm5.86 2.06a.5.5 0 0 0-.707.707L15.293 12l-1.147 1.146a.5.5 0 0 0 .708.707L16 12.707l1.146 1.146a.5.5 0 0 0 .708-.707L16.707 12l1.147-1.147a.5.5 0 0 0-.708-.707L16 11.293l-1.146-1.147ZM7 13.5a.5.5 0 1 1-1 0 .5.5 0 0 1 1 0Z" fill="#212121"/>
</svg>
